X:246
T:Jerusalem's Ridge
C:Jimmy Campbell - Arr.
N:Transcribed by Vance Henry
R:bluegrass
L:1/8
Q:1/4=230
M:4/4
K:C
|: A,"Am"B, CD E2 EF | ED CE DC EC | A,B, CD EG AG | "E"ED CE DC EC | "Am"A,B, CD E2 EF | 
ED CE DC EC | A,B, CD EG AG |1 E"E"D CB, "Am"A,3G, :|2 (3EG"E"E DC "Am"A,3D | 
|: E2 [A2A2] [A2A2] [A2A2] | EG AB cd cA | E2 [A2A2] A2 AB | "E"c2 [e2e2] [e3e3]A | 
"Am"E2 [A2A2] [A2A2] [A2A2] | EG AB cd cA | EG AB ce cA |1 G"E"E DC "Am"A,3D :|2 G"E"E DC "Am"A,4 | 
M:2/4
z2 AG | 
M:4/4
E6 E/F/E | "Dm"D4 z2 (3DED | "C"C4 "E"zG, (3B,CB, | "Am"A,4 z2 AG | E4 z2 (3EFE | 
"Dm"D4 z2 (3DED | "C"C4 "E"zG, (3B,CB, | "Am"A,8 |: e2 a2 a3g | a2 b2 c'4 | "C"eg za g2 g2 | 
zc' ag ed cd | "Am"ea ee a2 a2 | c'a bc' ac' ag | e2 e2 ed cd | "E"ed cB "Am"A4 | 
A3c AG E2 | DE zG ED CD | "E"EC DC "Am"A,4 | z2 (3DCB, A,4 | 
M:2/4
z4 :| 


